azure-docs/api_bing_news_search.svg

<?xml version="1.0" encoding="UTF-8"?>
<svg width="512px" height="512px" viewBox="0 0 512 512" version="1.1" xmlns="http://www.w3.org/2000/svg" xmlns:xlink="http://www.w3.org/1999/xlink">
    <!-- Generator: Sketch 46.2 (44496) - http://www.bohemiancoding.com/sketch -->
    <title>bingNews-wht-bluBG-512p</title>
    <desc>Created with Sketch.</desc>
    <defs></defs>
    <g id="PRODUCTION-ICONS" stroke="none" stroke-width="1" fill="none" fill-rule="evenodd">
        <g id="bingNews-wht-bluBG-512p">
            <g id="Bing-News-Search-API">
                <rect id="Rectangle-3-Copy-18" fill="#0063B1" x="0" y="0" width="512" height="512"></rect>
                <path d="M182.044444,352.32256 C163.555556,352.32256 148.514133,337.247004 148.514133,318.576071 C148.514133,299.910827 163.555556,284.835271 182.044444,284.835271 C200.533333,284.835271 215.574756,299.910827 215.574756,318.576071 C215.574756,337.247004 200.533333,352.32256 182.044444,352.32256 M182.044444,261.687182 C213.492622,261.687182 238.933333,287.190471 238.933333,318.576071 C238.933333,349.96736 213.492622,375.46496 182.044444,375.46496 C170.3424,375.46496 159.482311,371.926471 150.442667,365.879182 L107.116089,409.211449 L91.0222222,393.123271 L134.4512,349.688604 C128.591644,340.745671 125.155556,330.067627 125.155556,318.576071 C125.155556,287.190471 150.596267,261.687182 182.044444,261.687182 Z M142.222222,164.975502 L142.222222,142.219947 L369.777778,142.219947 L369.777778,164.975502 L142.222222,164.975502 Z M142.222222,227.55328 L142.222222,204.797724 L369.777778,204.797724 L369.777778,227.55328 L142.222222,227.55328 Z M256.555804,290.133333 C253.358649,281.787733 248.853049,274.102044 243.198293,267.377778 L369.776071,267.377778 L369.776071,290.133333 L256.555804,290.133333 Z M254.111289,352.711111 C257.479111,345.634133 259.822933,337.993956 260.972089,329.955556 L369.777778,329.955556 L369.777778,352.711111 L254.111289,352.711111 Z" id="Combined-Shape" fill="#FFFFFF"></path>
            </g>
        </g>
    </g>
</svg>

<svg width="512" height="512" xmlns="http://www.w3.org/2000/svg"><g fill="none" fill-rule="evenodd"><path fill="#0063B1" d="M0 0h512v512H0z"/><path d="M182.044 352.323c-18.488 0-33.53-15.076-33.53-33.747 0-18.665 15.042-33.74 33.53-33.74 18.49 0 33.53 15.075 33.53 33.74 0 18.671-15.04 33.747-33.53 33.747m0-90.636c31.449 0 56.89 25.503 56.89 56.89 0 31.39-25.441 56.888-56.89 56.888a56.63 56.63 0 0 1-31.601-9.586l-43.327 43.332-16.094-16.088 43.43-43.434c-5.86-8.943-9.296-19.621-9.296-31.113 0-31.386 25.44-56.889 56.888-56.889zm-39.822-96.711V142.22h227.556v22.756H142.222zm0 62.577v-22.755h227.556v22.755H142.222zm114.334 62.58c-3.197-8.345-7.703-16.031-13.358-22.755h126.578v22.755h-113.22zm-2.445 62.578a78.844 78.844 0 0 0 6.861-22.755h108.806v22.755H254.11z" fill="#FFF"/></g></svg>
